X:1
T:Title
%%score { ( 1 3 4 ) | ( 2 5 6 ) }
L:1/8
M:4/4
K:G
V:1 treble nm="Grand Piano"
V:3 treble 
V:4 treble 
V:2 bass 
V:5 bass 
V:6 bass 
V:1
 z4 z2[Q:1/4=106] D2 | [B,DG]3 [A,CD] [G,B,D]2 [A,CD]2 | [B,DG]3 [A,CD] [B,D]2 [A,D]2 | %3
 [B,EG]2 [CFA]2 [B,GB]2 [Gc]2 | [Fd]3 D D2 [Gd]2 | [Ge]3 [Gd] [Ec]2 [DA]2 | d4 z4 | %7
 [EB]2 [EA]2 [G,CE]2 [A,CF]2 |[M:3/4] [CDA]3 [B,DG] [B,DG]2 |[M:1/4] z2 | %10
[M:4/4] z2 [B,D]2 [B,D]2 z2 | z2 [G,C]2 [G,C]2 z2 | z2 [CE]2 [CE]2 z2 | %13
[M:3/4] z2[K:bass] [A,D]2 [A,D]2 |[M:1/4] z[K:treble] C |[M:4/4] G2- [G,CG-]2 [G,DG]2 [CFA]2 | %16
 B6 z2 | %17
 [Gd]2 z [B,G] [DGB]2 [CFA]2[Q:1/4=104][Q:1/4=103][Q:1/4=101][Q:1/4=100][Q:1/4=98][Q:1/4=97][Q:1/4=95][Q:1/4=94][Q:1/4=92][Q:1/4=90][Q:1/4=89][Q:1/4=87][Q:1/4=86][Q:1/4=84][Q:1/4=83][Q:1/4=81] | %18
[M:3/4] [B,G]6 |] %19
V:2
 z4 z2 D,2 | G,,3 G,, G,,2 D,2 | G,,3 D, G,2 F,2 | E,2 E,2 E,2 [E,A,]2 | %4
 [D,A,]3 [D,F,] [D,F,]2 [B,,G,]2 | [C,G,]3 [B,,G,] [A,,G,]2 [C,F,]2 | %6
 [B,,G,]2 D,^D, [E,G,]2 [=D,B,]2 | [C,G,]2 [C,G,]2 A,,2 D,2 |[M:3/4] D,3 G,, G,,2 | %9
[M:1/4][K:treble] D2 |[M:4/4] G6[K:bass][K:treble] z2 | E6[K:bass][K:treble] z2 | %12
 A6[K:bass][K:treble] z2 |[M:3/4] F6[K:bass] |[M:1/4] B,,A,, |[M:4/4] G,,2 A,,2 B,,2 D,2 | %16
 [G,B,D]2 [F,A,]2 [E,G,]2 [^D,_B,]2 | [D,B,]2 z E, D,2 D,2 |[M:3/4] G,,6 |] %19
V:3
 x8 | x8 | x8 | x8 | x8 | x8 | D2 z c [GB]2 [=FG]2 | x8 |[M:3/4] x6 |[M:1/4] x2 |[M:4/4] x8 | x8 | %12
 x8 |[M:3/4] x2[K:bass] x4 |[M:1/4] [F,D]2[K:treble] |[M:4/4] [G,B,]2 z2 z4 | z2 ^D2 E2 [G^c]2 | %17
 x8 |[M:3/4] x6 |] %19
V:4
 x8 | x8 | x8 | x8 | x8 | x8 | z2 [A,F]2 z4 | x8 |[M:3/4] x6 |[M:1/4] x2 |[M:4/4] x8 | x8 | x8 | %13
[M:3/4] x2[K:bass] x4 |[M:1/4] x[K:treble] x |[M:4/4] x8 | x8 | x8 |[M:3/4] x6 |] %19
V:5
 x8 | x8 | x8 | x8 | x8 | x8 | x8 | x8 |[M:3/4] x6 |[M:1/4][K:treble] x2 | %10
[M:4/4] z2[K:bass] G,,2 G,,2[K:treble] B2 | z2[K:bass] C,2 C,2[K:treble] E2 | %12
 z2[K:bass] A,,2 z[K:treble] BcA |[M:3/4] z[K:bass] ^C, D,E, D,=C, |[M:1/4] x2 |[M:4/4] x8 | x8 | %17
 x8 |[M:3/4] x6 |] %19
V:6
 x8 | x8 | x8 | x8 | x8 | x8 | x8 | x8 |[M:3/4] x6 |[M:1/4][K:treble] x2 | %10
[M:4/4] x2[K:bass] x4[K:treble] x2 | x2[K:bass] x4[K:treble] x2 | z4[K:bass] A,,2[K:treble] z2 | %13
[M:3/4] x[K:bass] x5 |[M:1/4] x2 |[M:4/4] x8 | x8 | x8 |[M:3/4] x6 |] %19

